X:1
L:1/8
Q:1/2=80
M:4/4
K:D
""_Scordatura"" [A,EAe]2 |: f2 | f2 dc d2 e2 | c3 B c2 BA | F2 A2 B2 c2 | F3 E D2 e2 | f2 dc d2 e2 | 
 c3 B c2 BA | F2 A2 B3 G | G6 :: a2 | b2 ag fg a2 | g3 f e2 a2 | f2 ef (gf)(ed) | c3 d Bc d2 | 
 (ef)(ec) (Bc)(BA) | (FE)(FA) (Bc)(BD) | (EF) A2 A3 F | G6 :|
